X: 42574
T: When The Cat Is Out
R: jig
M: 6/8
K: Gmajor
|:E|F2 A ABc|BdB cBA|F2 A ABc|dFB AFD|
F/G/AF D2 F|GFG BAG|FAF DEF|GFG EE/F/G|
FAF DEF|G2 G BAG|B/c/dB cAF|AGF G2:|
d2 g ecA|Bcd ece|dGg ecA|B^AB c2 =A|
d2 g bg/a/b|agf g2 e|fge dGd|AGF G2:|
F2 A ABc|B/c/dB cBA|F2 A ABc|dFB AFD|
FAA ABc|BdB c2 A|B2 d cAF|AGF G2:|

